X:1
T:Left Hand Pattern:  1515 3515
C:zhiming@vmiis.com
M:4/4
L:1/8
Q:1/4=120
K:C
V:1
"①"e2e2f2g2|"⑤"g2f2e2d2|"①"c2c2d2e2|"⑤"e2>d2d4|
"①"e2e2f2g2|"⑤"g2f2e2d2|"①"c2c2d2e2|"⑤"d2>c2"①"c4|
V:2 celf=bass
C,G,CG, EG,CG,|G,,D,G,D, B,D,G,D,|C,G,CG, EG,CG,|G,,D,G,D, B,D,G,D,|
C,G,CG, EG,CG,|G,,D,G,D, B,D,G,D,|C,G,CG, EG,CG,|G,,D,G,D,C,4|